!!!COM: Corelli, Arcangelo
!!!OPR: Sonata da chiesa
!!!OPS: 1
!!!ONM: 1
!!!OMV: 2
!!!OMD: Allegro
**kern	**fb	**kern	**kern	**kern
*part4	*part4	*part3	*part2	*part1
*staff4	*	*staff3	*staff2	*staff1
*I"Organo	*	*I"Violone	*I"Violino II	*I"Violino I
*clefF4	*	*clefF4	*clefG2	*clefG2
*k[b-]	*	*k[b-]	*k[b-]	*k[b-]
*M4/4	*	*M4/4	*M4/4	*M4/4
*MM104	*	*MM104	*MM104	*MM104
=1	=1	=1	=1	=1
4FF	.	1r	1r	2f
2F	5	.	.	.
.	4 2	.	.	2g
4E	6	.	.	.
=2	=2	=2	=2	=2
2F	.	1r	16r	2a
.	.	.	16ccLL	.
.	.	.	16b-	.
.	.	.	16ccJJ	.
.	.	.	16aLL	.
.	.	.	16g	.
.	.	.	16f	.
.	.	.	16eJJ	.
2G	.	.	16dLL	2b-
.	.	.	16dd	.
.	.	.	16cc	.
.	.	.	16ddJJ	.
.	.	.	16b-LL	.
.	.	.	16a	.
.	.	.	16g	.
.	.	.	16fJJ	.
=3	=3	=3	=3	=3
2A	5	1r	16eLL	2cc
.	.	.	16ee	.
.	.	.	16dd	.
.	.	.	16eeJJ	.
.	.	.	16ccLL	.
.	.	.	16b-	.
.	.	.	16a	.
.	.	.	16gJJ	.
2D	.	.	16fLL	4dd
.	.	.	16ff	.
.	.	.	16ee	.
.	.	.	16ffJJ	.
.	.	.	16ddLL	[4dd
.	.	.	16cc	.
.	.	.	16bn	.
.	.	.	16aJJ	.
=4	=4	=4	=4	=4
4G	n	1r	16bnLL	4dd]
.	.	.	16g	.
.	.	.	16a	.
.	.	.	16bJJ	.
4A	5	.	16ccLL	2cc
.	.	.	16dd	.
.	.	.	16ee	.
.	.	.	16ffJJ	.
4G	4	.	16ggLL	.
.	.	.	16ff	.
.	.	.	16ee	.
.	.	.	16ffJJ	.
4GG	n	.	8.ddL	4bn
.	.	.	16ddJk	.
=5	=5	=5	=5	=5
2C	.	2C	4ee	4cc
.	.	.	2cc	4r
4D	7	2D	.	2r
4D	#6\	.	4bn	.
=6	=6	=6	=6	=6
2E	6	2E	[4cc	16r
.	.	.	.	16ggLL
.	.	.	.	16ff
.	.	.	.	16ggJJ
.	.	.	16ccLL]	16eeLL
.	.	.	16b-	16dd
.	.	.	16a	16cc
.	.	.	16gJJ	16b-JJ
2F	.	2F	4f	16aLL
.	.	.	.	16aa
.	.	.	.	16gg
.	.	.	.	16aaJJ
.	.	.	4aa	16ffLL
.	.	.	.	16ee
.	.	.	.	16dd
.	.	.	.	16ccJJ
=7	=7	=7	=7	=7
2G	.	2G	[4gg	16b-LL
.	.	.	.	16bb-
.	.	.	.	16aa
.	.	.	.	16bb-JJ
.	.	.	16ggLL]	16ggLL
.	.	.	16aa	16ff
.	.	.	16gg	16ee
.	.	.	16ffJJ	16ddJJ
2A	5	2A	16eeLL	16ccLL
.	.	.	16cc	16ee
.	.	.	16dd	16ff
.	.	.	16eeJJ	16ggJJ
.	6	.	16ffLL	16aaLL
.	.	.	16gg	16bb-
.	.	.	16ff	16aa
.	.	.	16eeJJ	16ggJJ
=8	=8	=8	=8	=8
4B-	.	4B-	(16ddLL	(16ffLL
.	.	.	16cc)	16ee)
.	.	.	(16dd	(16ff
.	.	.	16eeJJ)	16ggJJ)
4F	.	4F	8ffL	(16aaLL
.	.	.	.	16gg)
.	.	.	8ffJ	(16aa
.	.	.	.	16bb-JJ)
4c	5 4	4c	4.ff	8ggL
.	.	.	.	8aaJ
4C	3	4C	.	8.ggL
.	.	.	8ee	.
.	.	.	.	16ggJk
=9	=9	=9	=9	=9
4FF	.	4F	2ff	4ff
2F	5	4r	.	4r
.	4 2	2r	2gg	4r
4E	6	.	.	16r
.	.	.	.	16ccLL
.	.	.	.	16b-
.	.	.	.	16ccJJ
=10	=10	=10	=10	=10
2F	.	16r	2aa	4a
.	.	16cLL	.	.
.	.	16B-	.	.
.	.	16cJJ	.	.
.	.	16ALL	.	4cc
.	.	16G	.	.
.	.	16F	.	.
.	.	16EJJ	.	.
2D	6	16DLL	2bb-	16r
.	.	16d	.	16ffLL
.	.	16c	.	16ee
.	.	16dJJ	.	16ffJJ
.	.	16B-LL	.	4dd
.	.	16A	.	.
.	.	16G	.	.
.	.	16FJJ	.	.
=11	=11	=11	=11	=11
4E	6	16ELL	2ccc	16r
.	.	16e	.	16ggLL
.	.	16d	.	16ff
.	.	16eJJ	.	16ggJJ
4C	.	16cLL	.	4ee
.	.	16B-	.	.
.	.	16A	.	.
.	.	16GJJ	.	.
4F	6	16FLL	2ddd	16r
.	.	16f	.	16aaLL
.	.	16e	.	16gg
.	.	16fJJ	.	16aaJJ
4D	.	16dLL	.	4ff
.	.	16c	.	.
.	.	16Bn	.	.
.	.	16AJJ	.	.
=12	=12	=12	=12	=12
4G	n	4G	4bbn	16r
.	.	.	.	16ggLL
.	.	.	.	16ff
.	.	.	.	16ggJJ
4C	.	16CLL	4ccc	16eeLL
.	.	16D	.	16ff
.	.	16E	.	16gg
.	.	16FJJ	.	16aaJJ
8GL	5 4	8GL	4.ccc	8ddL
8F	7 5	8F	.	8eeJ
8G	5 4	8G	.	8.ddL
8GGJ	n	8GGJ	8bb	.
.	.	.	.	16ddJk
=13	=13	=13	=13	=13
2C	5	2C	16cccLL	2cc
.	.	.	16ee	.
.	.	.	16ff	.
.	.	.	16ggJJ	.
.	6	.	[4aa	.
4D	6 5	2r	16aaLL]	2b-
.	.	.	16dd	.
.	.	.	16ee	.
.	.	.	16ffJJ	.
4E	5	.	[4gg	.
=14	=14	=14	=14	=14
4F	9	1r	16ggLL]	2a
.	.	.	16cc	.
.	.	.	16dd	.
.	.	.	16eeJJ	.
4AA	6	.	2ff	.
4BB-	6 5	.	.	2g
4C	.	.	4ee	.
=15	=15	=15	=15	=15
4FF	5	[4F	2ff	16fLL
.	.	.	.	16a
.	.	.	.	16b-
.	.	.	.	16ccJJ
4F	6	16FLL]	.	[4dd
.	.	16D	.	.
.	.	16E	.	.
.	.	16FJJ	.	.
4G	-r6 5	[4G	2ee-X	16ddLL]
.	.	.	.	16g
.	.	.	.	16a
.	.	.	.	16b-JJ
4C	.	16GLL]	.	[4cc
.	.	16C	.	.
.	.	16D	.	.
.	.	16E-XJJ	.	.
=16	=16	=16	=16	=16
4F	6 5	4F	2dd	16ccLL]
.	.	.	.	16f
.	.	.	.	16g
.	.	.	.	16aJJ
8DL	6	8DL	.	2b-
8BB-J	.	8BB-J	.	.
4F	5 4	4F	2cc	.
4FF	3	4FF	.	4a
=17	=17	=17	=17	=17
4BB-	.	4BB-	4.b-	8b-L
.	.	.	.	8cc
8B-L	.	8B-L	.	8dd
8GJ	6	8GJ	8b-	8eeJ
4F	.	4F	4.a	8ffL
.	.	.	.	8ccJ
4FF	5	4FF	.	[4ff
.	6	.	8dd	.
=18	=18	=18	=18	=18
4GG	7 n	4GG	8bnL	4ff]
.	.	.	8gJ	.
8AAL	5	8AAL	2cc	4ee
8EJ	6	8EJ	.	.
4F	6 5	4F	.	2dd
4G	n	4G	4b	.
=19	=19	=19	=19	=19
2c	5	2c	[4cc	16ccLL
.	.	.	.	16ee
.	.	.	.	16ff
.	.	.	.	16ggJJ
.	6	.	16ccLL]	[4aa
.	.	.	16a	.
.	.	.	16b-	.
.	.	.	16ccJJ	.
2B-	7	2B-	[4dd	16aaLL]
.	.	.	.	16dd
.	.	.	.	16ee
.	.	.	.	16ffJJ
.	6	.	16ddLL]	[4gg
.	.	.	16g	.
.	.	.	16a	.
.	.	.	16b-JJ	.
=20	=20	=20	=20	=20
2A	7	2A	[4cc	16ggLL]
.	.	.	.	16cc
.	.	.	.	16dd
.	.	.	.	16eeJJ
.	6	.	16ccLL]	2ff
.	.	.	16f	.
.	.	.	16g	.
.	.	.	16aJJ	.
2G	7	2G	8b-L	.
.	.	.	8aJ	.
.	6	.	8g	4ee
.	.	.	(16ccLL	.
.	.	.	16b-JJ)	.
=21	=21	=21	=21	=21
4F	5	4F	16aLL	16ffLL
.	.	.	16cc	16a
.	.	.	16dd	16b-
.	.	.	16eeJJ	16ccJJ
4D	.	4D	16ffLL	16ddLL
.	.	.	16aa	16ff
.	.	.	16gg	16ee
.	.	.	16ffJJ	16ddJJ
4AA	#	4AA	4ee	8cc#X
.	.	.	.	4aa
4BB-	7	4BB-	4dd	.
.	6	.	.	[8gg
=22	=22	=22	=22	=22
4AA	7 #	4AA	4cc#X	8gg]
.	6	.	.	4ff
4GG	7 n	4GG	4bn	.
.	6	.	.	16ggLL
.	.	.	.	16ffJJ
2AA	5 #	2AA	8cc#L	16eeLL
.	.	.	.	16aa
.	4	.	8ddJ	16gg
.	6	.	.	16ffJJ
.	5 4	.	8.ddL	8.eeL
.	#	.	.	.
.	.	.	16cc#Jk	16eeJk
=23	=23	=23	=23	=23
4DD	.	4D	4dd	2dd
2D	5 3	2D	4r	.
.	4 2	.	2r	2ee
4C#X	6	4C#X	.	.
=24	=24	=24	=24	=24
4D	.	4D	16r	2ff
.	.	.	16aaLL	.
.	.	.	16gg	.
.	.	.	16aaJJ	.
4d	.	16r	4ff	.
.	.	16dLL	.	.
.	.	16c	.	.
.	.	16dJJ	.	.
4B-	6 5	4B-	16r	2gg
.	.	.	16bb-LL	.
.	.	.	16aa	.
.	.	.	16bb-JJ	.
4c	.	16r	[4gg	.
.	.	16cLL	.	.
.	.	16B-	.	.
.	.	16cJJ	.	.
=25	=25	=25	=25	=25
2F	9	2F	16ggLL]	4.aa
.	.	.	16cc	.
.	.	.	16dd	.
.	.	.	16eeJJ	.
.	8	.	16ffLL	.
.	.	.	16ee	.
.	.	.	16dd	8ff
.	.	.	16ccJJ	.
2G	7	2G	16b-LL	4ff
.	.	.	16cc	.
.	.	.	16b-	.
.	.	.	16aJJ	.
.	6	.	16gLL	4ee
.	.	.	16cc	.
.	.	.	16b-	.
.	.	.	16ccJJ	.
=26	=26	=26	=26	=26
2A	6	2A	4a	16ffLL
.	.	.	.	16cc
.	.	.	.	16b-
.	.	.	.	16ccJJ
.	.	.	4r	16aLL
.	.	.	.	16g
.	.	.	.	16f
.	.	.	.	16eJJ
2B-	.	2B-	2r	16dLL
.	.	.	.	16dd
.	.	.	.	16cc
.	.	.	.	16ddJJ
.	.	.	.	16b-LL
.	.	.	.	16a
.	.	.	.	16g
.	.	.	.	16fJJ
=27	=27	=27	=27	=27
4c	.	4c	2cc	8eL
.	.	.	.	8cJ
4E	6	4E	.	2cc
4D	7	4D	2dd	.
4GG	n	4GG	.	4bn
=28	=28	=28	=28	=28
2C	.	2C	16eeLL	4cc
.	.	.	16gg	.
.	.	.	16ff	.
.	.	.	16ggJJ	.
.	.	.	16eeLL	4r
.	.	.	16dd	.
.	.	.	16cc	.
.	.	.	16b-JJ	.
2F	.	2F	4a	16r
.	.	.	.	16ccLL
.	.	.	.	16b-
.	.	.	.	16ccJJ
.	.	.	4r	16aLL
.	.	.	.	16g
.	.	.	.	16f
.	.	.	.	16eJJ
=29	=29	=29	=29	=29
2B-	.	2B-	16r	4d
.	.	.	16ffLL	.
.	.	.	16ee	.
.	.	.	16ffJJ	.
.	.	.	16ddLL	4r
.	.	.	16cc	.
.	.	.	16b-	.
.	.	.	16aJJ	.
2BB-	6	2BB-	4g	16r
.	.	.	.	16b-LL
.	.	.	.	16a
.	.	.	.	16b-JJ
.	.	.	4r	16gLL
.	.	.	.	16f
.	.	.	.	16e
.	.	.	.	16dJJ
=30	=30	=30	=30	=30
2C	.	2C	2cc	16eLL
.	.	.	.	16g
.	.	.	.	16a
.	.	.	.	16b-JJ
.	.	.	.	2cc
2G	4	2G	2dd	.
.	-r3	.	.	[4b-
=31	=31	=31	=31	=31
4C	7	4C	4ee	4b-]
4FF	.	4FF	2ff	4a
4GG	7 n	4GG	.	4bn
4AA	5	4AA	4ee	[4cc
=32	=32	=32	=32	=32
4FF	6 5	4FF	2dd	4cc]
4GG	n	4GG	.	4bn
2C	5	4C	2cc	16ccLL
.	.	.	.	16ee
.	.	.	.	16ff
.	.	.	.	16ggJJ
.	6	16r	.	[4aa
.	.	16ALL	.	.
.	.	16B-	.	.
.	.	16cJJ	.	.
=33	=33	=33	=33	=33
4D	6 5	[4d	2b-	16aaLL]
.	.	.	.	16dd
.	.	.	.	16ee
.	.	.	.	16ffJJ
4BB-	6	16dLL]	.	[4gg
.	.	16G	.	.
.	.	16A	.	.
.	.	16B-JJ	.	.
4C	6 5	[4c	2a	16ggLL]
.	.	.	.	16cc
.	.	.	.	16dd
.	.	.	.	16eeJJ
4AA	6	16cLL]	.	[4ff
.	.	16F	.	.
.	.	16G	.	.
.	.	16AJJ	.	.
=34	=34	=34	=34	=34
4BB-	6 5	4B-	2g	4ff]
4C	.	4c	.	4ee
2F	5	2F	16fLL	4ff
.	.	.	16a	.
.	.	.	16b-	.
.	.	.	16ccJJ	.
.	6	.	[4dd	16r
.	.	.	.	16dLL
.	.	.	.	16e
.	.	.	.	16fJJ
=35	=35	=35	=35	=35
2E	7	2E	16ddLL]	[4g
.	.	.	16g	.
.	.	.	16a	.
.	.	.	16b-JJ	.
.	6	.	[4cc	16gLL]
.	.	.	.	16c
.	.	.	.	16d
.	.	.	.	16eJJ
2D	7	2D	16ccLL]	[4f
.	.	.	16ff	.
.	.	.	16gg	.
.	.	.	16aaJJ	.
.	6	.	[4bb-	16fLL]
.	.	.	.	16b-
.	.	.	.	16cc
.	.	.	.	16ddJJ
=36	=36	=36	=36	=36
2C	7	2C	16bb-LL]	[4ee
.	.	.	16ee	.
.	.	.	16ff	.
.	.	.	16ggJJ	.
.	6	.	[4aa	16eeLL]
.	.	.	.	16a
.	.	.	.	16b-
.	.	.	.	16ccJJ
2BB-	7	2BB-	16aaLL]	[4dd
.	.	.	16dd	.
.	.	.	16ee	.
.	.	.	16ffJJ	.
.	6	.	[4gg	16ddLL]
.	.	.	.	16g
.	.	.	.	16a
.	.	.	.	16b-JJ
=37	=37	=37	=37	=37
2AA	7	2AA	16ggLL]	[4cc
.	.	.	16cc	.
.	.	.	16dd	.
.	.	.	16eeJJ	.
.	6	.	2ff	16ccLL]
.	.	.	.	16f
.	.	.	.	16g
.	.	.	.	16aJJ
2GG	7	2GG	.	16b-LL
.	.	.	.	16cc
.	.	.	.	16b-
.	.	.	.	16aJJ
.	6	.	4ee	8.gL
.	.	.	.	16gJk
=38	=38	=38	=38	=38
1FF	.	1FF	1ff	1a
=||	=||	=||	=||	=||
*-	*-	*-	*-	*-
!!!system-decoration: [{s1,s2},s3,s4]
!!!YEM: CC BY-NC-SA 4.0; CCARH; DCML